img/svg/os/solaris.svg

<?xml version="1.0" encoding="iso-8859-1"?>
<!-- Generator: Adobe Illustrator 21.0.2, SVG Export Plug-In . SVG Version: 6.00 Build 0)  -->
<svg version="1.1" id="&#x56FE;&#x5C42;_1" xmlns="http://www.w3.org/2000/svg" xmlns:xlink="http://www.w3.org/1999/xlink" x="0px"
	 y="0px" viewBox="0 0 16 16" style="enable-background:new 0 0 16 16;" xml:space="preserve">
<path d="M8.132,15c-0.958,0-1.792-0.243-2.556-0.661l0.172-0.955c0.94,0.226,1.514,0.33,2.07,0.33c1.253,0,1.756-0.539,1.756-1.147
	c0-0.678-0.296-1.008-1.668-1.53C6.219,10.411,5.61,9.752,5.61,8.551c0-1.493,1.183-2.52,2.991-2.52c0.73,0,1.425,0.139,2.225,0.557
	l-0.209,0.956c-0.661-0.19-1.184-0.26-1.67-0.26c-0.989,0-1.477,0.469-1.477,1.079c0,0.607,0.347,0.938,1.721,1.424
	c1.634,0.59,2.277,1.338,2.277,2.572C11.469,13.887,10.236,15,8.132,15 M11.112,3.699c0.015-0.083,0.216-0.583,0.216-0.583
	c0.249-0.562,0.091-0.964,0.091-0.964C11.272,1.606,10.85,1.18,10.85,1.18c0.02,0.015,0.149,0.357,0.149,0.357
	c0.296,0.817-0.498,1.286-0.498,1.286c-0.204,0.135-0.538,0.457-0.538,0.457C9.496,3.737,9.637,4.297,9.637,4.297l0.019,0.008
	c0.557,0.137,1.08,0.359,1.555,0.65C10.896,4.343,11.112,3.699,11.112,3.699 M12.739,6.348c-0.052-0.674,0.379-1.179,0.379-1.179
	c0.044-0.072,0.417-0.46,0.417-0.46c0.441-0.429,0.445-0.861,0.445-0.861c0.068-0.561-0.165-1.114-0.165-1.114
	c0.013,0.021,0.005,0.386,0.005,0.387c-0.03,0.868-0.941,1.008-0.941,1.008c-0.241,0.049-0.671,0.223-0.671,0.223
	c-0.56,0.232-0.668,0.741-0.68,0.814C11.99,5.496,12.398,5.895,12.739,6.348 M16,5.232c0.004,0.025-0.14,0.362-0.14,0.362
	c-0.35,0.795-1.247,0.585-1.247,0.585c-0.242-0.043-0.705-0.042-0.705-0.042c-0.654,0.008-0.939,0.511-0.939,0.511l0.034,0.083
	c0.285,0.456,0.504,0.955,0.646,1.487c0.194-0.664,0.8-0.983,0.8-0.983c0.068-0.049,0.558-0.273,0.558-0.273
	c0.569-0.234,0.733-0.633,0.733-0.633C16.01,5.832,16,5.232,16,5.232 M9.223,4.219C8.726,3.766,8.69,3.108,8.69,3.108
	c-0.019-0.083-0.016-0.62-0.016-0.62c0.024-0.614-0.273-0.93-0.273-0.93C8.064,1.104,7.512,0.865,7.512,0.865
	c0.025,0.007,0.271,0.277,0.271,0.277C8.36,1.79,7.798,2.52,7.798,2.52c-0.14,0.202-0.331,0.624-0.331,0.624
	c-0.25,0.565,0.038,1.014,0.07,1.062C7.819,4.165,8.108,4.145,8.4,4.148C8.681,4.151,8.955,4.175,9.223,4.219 M6.219,3.444
	c-0.046-0.07-0.246-0.569-0.246-0.569C5.767,2.296,5.375,2.113,5.375,2.113C4.891,1.819,4.292,1.801,4.292,1.801
	c0.026-0.002,0.355,0.157,0.355,0.157c0.778,0.387,0.527,1.274,0.527,1.274C5.118,3.47,5.098,3.934,5.098,3.934
	C5.074,4.587,5.564,4.896,5.564,4.896l0.023-0.008c0.475-0.277,0.998-0.484,1.551-0.607C6.501,4.048,6.219,3.444,6.219,3.444
	 M5.233,5.112C4.559,5.129,4.075,4.675,4.075,4.675C4.007,4.627,3.637,4.237,3.637,4.237C3.231,3.775,2.798,3.751,2.798,3.751
	c-0.557-0.095-1.12,0.11-1.12,0.11C1.7,3.85,2.064,3.875,2.065,3.875c0.865,0.073,0.96,0.989,0.96,0.989
	c0.037,0.243,0.191,0.681,0.191,0.681c0.22,0.616,0.788,0.721,0.788,0.721l0.011-0.01C4.361,5.816,4.772,5.429,5.233,5.112
	 M2.53,6.633C2.448,6.614,1.959,6.388,1.959,6.388c-0.548-0.28-0.959-0.142-0.959-0.142C0.448,6.363,0,6.763,0,6.763
	c0.017-0.02,0.365-0.13,0.365-0.13C1.196,6.38,1.623,7.197,1.623,7.197c0.124,0.211,0.429,0.562,0.429,0.561
	c0.431,0.491,1,0.38,1,0.38L3.066,8.11C3.22,7.573,3.456,7.071,3.757,6.615C3.14,6.874,2.53,6.633,2.53,6.633"/>
</svg>

<svg xmlns="http://www.w3.org/2000/svg" viewBox="0 0 16 16"><title>solaris</title><path d="M8.13,15a5.21,5.21,0,0,1-2.56-.66l.17-1a8.83,8.83,0,0,0,2.07.33c1.25,0,1.76-.54,1.76-1.15s-.3-1-1.67-1.53c-1.69-.63-2.3-1.29-2.3-2.49C5.61,7.06,6.79,6,8.6,6a4.57,4.57,0,0,1,2.22.56l-.21,1a5.91,5.91,0,0,0-1.67-.26c-1,0-1.48.47-1.48,1.08s.35.94,1.72,1.42c1.63.59,2.28,1.34,2.28,2.57,0,1.53-1.23,2.64-3.34,2.64"/><path d="M11.11,3.7c0-.08.22-.58.22-.58a1.33,1.33,0,0,0,.09-1,2.5,2.5,0,0,0-.57-1,3.82,3.82,0,0,1,.15.36,1.1,1.1,0,0,1-.5,1.29,5.28,5.28,0,0,0-.54.46,1.12,1.12,0,0,0-.33,1h0A5.47,5.47,0,0,1,11.21,5a1.77,1.77,0,0,1-.1-1.26"/><path d="M12.74,6.35a1.78,1.78,0,0,1,.38-1.18c0-.07.42-.46.42-.46A1.33,1.33,0,0,0,14,3.85a2.5,2.5,0,0,0-.17-1.11s0,.39,0,.39a1.1,1.1,0,0,1-.94,1,5.32,5.32,0,0,0-.67.22,1.12,1.12,0,0,0-.68.81,5.57,5.57,0,0,1,1.21,1.18"/><path d="M16,5.23a3.78,3.78,0,0,1-.14.36,1.1,1.1,0,0,1-1.25.58,5.45,5.45,0,0,0-.71,0,1.12,1.12,0,0,0-.94.51l0,.08a5.47,5.47,0,0,1,.65,1.49,1.77,1.77,0,0,1,.8-1C14.52,7.19,15,7,15,7a1.33,1.33,0,0,0,.73-.63A2.51,2.51,0,0,0,16,5.23"/><path d="M9.22,4.22a1.78,1.78,0,0,1-.53-1.11c0-.08,0-.62,0-.62a1.33,1.33,0,0,0-.27-.93A2.49,2.49,0,0,0,7.51.86a3.8,3.8,0,0,1,.27.28,1.1,1.1,0,0,1,0,1.38,5.32,5.32,0,0,0-.33.62,1.12,1.12,0,0,0,.07,1.06,5.5,5.5,0,0,1,.86-.06,5.39,5.39,0,0,1,.82.07"/><path d="M6.22,3.44c0-.07-.25-.57-.25-.57a1.33,1.33,0,0,0-.6-.76A2.51,2.51,0,0,0,4.29,1.8s.35.16.35.16a1.1,1.1,0,0,1,.53,1.27,5.36,5.36,0,0,0-.07.7,1.12,1.12,0,0,0,.47,1h0a5.42,5.42,0,0,1,1.55-.61,1.78,1.78,0,0,1-.92-.84"/><path d="M5.23,5.11a1.78,1.78,0,0,1-1.16-.44c-.07,0-.44-.44-.44-.44a1.33,1.33,0,0,0-.84-.49,2.49,2.49,0,0,0-1.12.11s.39,0,.39,0a1.1,1.1,0,0,1,1,1,5.25,5.25,0,0,0,.19.68A1.12,1.12,0,0,0,4,6.27H4A5.56,5.56,0,0,1,5.23,5.11"/><path d="M2.53,6.63c-.08,0-.57-.24-.57-.24a1.32,1.32,0,0,0-1-.14,2.49,2.49,0,0,0-1,.52s.37-.13.37-.13a1.1,1.1,0,0,1,1.26.56,5.13,5.13,0,0,0,.43.56,1.12,1.12,0,0,0,1,.38v0a5.46,5.46,0,0,1,.69-1.5,1.78,1.78,0,0,1-1.23,0"/></svg>
